wp-content/plugins/one-click-demo-import/assets/images/icons/brush.svg

<svg width="55" height="52" viewBox="0 0 55 52" fill="none" xmlns="http://www.w3.org/2000/svg">
<path d="M54.125 5.375C54.2083 5.125 54.25 4.91667 54.25 4.75C54.3333 4.08333 54.3333 3.5 54.25 3C54.0833 2.25 53.7083 1.625 53.125 1.125C52.4583 0.375 51.625 0.0416667 50.625 0.125C50.0417 0.125 49.5833 0.166667 49.25 0.25C48.3333 0.75 46.375 1.95833 43.375 3.875C39.7083 6.20833 36.375 8.5 33.375 10.75C29.4583 13.6667 26.5833 16.125 24.75 18.125C23.75 19.2083 22.7917 20.75 21.875 22.75C20.9583 24.9167 20.375 26.9167 20.125 28.75C19.875 30.9167 20.2083 32.5 21.125 33.5C22.125 34.5 23.7083 34.9167 25.875 34.75C27.7917 34.5833 29.7917 34.0417 31.875 33.125C34.0417 32.2083 35.5833 31.2917 36.5 30.375C38.5 28.375 40.9583 25.375 43.875 21.375C46.125 18.2917 48.375 14.9167 50.625 11.25C52.5417 8.25 53.7083 6.29167 54.125 5.375ZM0 50.5C1.83333 49.3333 3.25 47.9167 4.25 46.25C4.83333 45.3333 5.45833 43.9167 6.125 42C6.625 40.5 7.08333 39.375 7.5 38.625C8.25 37.4583 9.20833 36.4583 10.375 35.625C11.875 34.5417 13.5417 34.0833 15.375 34.25C17.2083 34.3333 18.7917 35.0833 20.125 36.5C20.875 37.25 21.375 38.3333 21.625 39.75C21.875 41.1667 21.8333 42.625 21.5 44.125C21.25 45.5417 20.625 46.7083 19.625 47.625C17.2917 49.875 14.25 51.2083 10.5 51.625C7.16667 51.9583 3.66667 51.5833 0 50.5Z" fill="#999999"/>
</svg>

<svg xmlns="http://www.w3.org/2000/svg" width="55" height="52" fill="none"><path fill="#999" d="M54.125 5.375q.125-.375.125-.625.124-1 0-1.75a3.37 3.37 0 0 0-1.125-1.875q-1-1.125-2.5-1-.875 0-1.375.125-1.375.75-5.875 3.625-5.5 3.5-10 6.875-5.876 4.375-8.625 7.375-1.5 1.625-2.875 4.625-1.375 3.25-1.75 6-.375 3.25 1 4.75 1.5 1.5 4.75 1.25 2.876-.25 6-1.625 3.25-1.375 4.625-2.75 3-3 7.375-9 3.375-4.624 6.75-10.125 2.875-4.5 3.5-5.875M0 50.5q2.75-1.75 4.25-4.25.875-1.375 1.875-4.25.75-2.25 1.375-3.375a10.9 10.9 0 0 1 2.875-3q2.25-1.625 5-1.375 2.75.124 4.75 2.25 1.125 1.125 1.5 3.25t-.125 4.375q-.375 2.125-1.875 3.5-3.5 3.375-9.125 4-5 .5-10.5-1.125"/></svg>
